frontend/public/svg/interface/pie.svg

<svg width="156" height="150" viewBox="0 0 156 150" fill="none" xmlns="http://www.w3.org/2000/svg">
<g clip-path="url(#clip0)">
<path d="M138.968 75.9411C138.361 75.8687 137.748 75.8411 137.136 75.8572C131.866 75.9067 126.595 75.9578 121.325 76.0118C109.926 76.1268 98.1382 76.2417 86.5454 76.3296C83.9677 76.3486 81.4361 76.2802 78.7564 76.2067C77.6909 76.1773 76.618 76.1492 75.5371 76.1245C75.5115 76.0199 75.4882 75.9273 75.4671 75.8446C75.4164 75.6745 75.3805 75.5003 75.3599 75.3239C74.8859 64.7653 74.4147 54.207 73.9457 43.6487L73.1532 25.8422C73.1401 25.5428 73.1378 25.2395 73.1367 24.9361C73.1674 24.114 73.0916 23.2913 72.9121 22.4888C71.719 18.0388 70.9008 16.941 66.1391 17.1732C60.4384 17.4076 54.7908 18.3797 49.3355 20.0653C34.0578 24.8929 22.8157 32.9619 14.9675 44.7291C7.90218 55.3205 3.3869 67.6567 1.54364 81.3929C-0.744616 98.4469 4.0448 113.508 15.3926 124.947C31.8418 141.528 51.0666 149.86 72.7646 149.86C80.7877 149.81 88.775 148.772 96.5485 146.768C105.939 144.411 113.286 140.47 119.009 134.715C130.029 123.632 137.501 109.956 141.85 92.9049C143.127 87.8998 143.413 83.7457 142.75 79.8319C142.378 77.6354 141.64 76.2946 138.968 75.9411ZM23.2834 118.947C14.3657 110.229 10.1992 98.7084 11.2344 85.6302C12.4065 70.8268 17.1351 57.6917 25.2888 46.5888C29.9109 40.294 36.1929 35.2181 44.4906 31.0715C50.9332 27.9128 57.7593 25.6222 64.7944 24.2589C65.2064 24.1914 65.6246 24.1635 66.0417 24.1756H66.2491C66.2519 24.1922 66.2542 24.2089 66.2565 24.225C66.3083 24.5253 66.3391 24.829 66.3499 25.1336C66.4354 41.3559 66.5129 57.5779 66.5824 73.8003C66.5824 74.5475 66.5437 75.3136 66.5032 76.0549C66.4747 76.5722 66.4462 77.0894 66.4314 77.6101C66.3687 79.8296 66.8576 81.4118 67.9265 82.4457C68.984 83.4699 70.539 83.8906 72.6956 83.7411C73.1139 83.7118 73.5372 83.7193 73.9833 83.7291L74.3947 83.7365C77.0095 83.7647 79.6242 83.7986 82.2395 83.8383C87.9072 83.9182 93.7731 84.0107 99.5331 83.9923C106.712 83.9825 114.013 83.9067 121.071 83.8325C124.81 83.794 128.549 83.7584 132.29 83.7245C132.429 83.7503 132.565 83.7906 132.696 83.8446L132.86 83.9021C132.668 84.9768 132.502 86.0659 132.34 87.1205C132.001 89.8049 131.451 92.4584 130.694 95.0549C127.108 106.183 122.385 115.4 116.254 123.236C111.183 129.716 105.033 134.093 97.973 136.244C69.1396 145.03 44.0093 139.211 23.2834 118.947Z" fill="black"/>
<path d="M152.816 56.1302C150.668 50.9147 148.447 45.521 145.449 40.5526C132.926 19.7997 115.314 6.58195 93.104 1.26589C91.0767 0.77961 89.0073 0.495794 86.9253 0.418692C85.3732 0.356049 84.2211 0.709592 83.4245 1.48028C82.6075 2.27051 82.2046 3.46535 82.1932 5.13201C82.1801 7.12109 82.2736 9.28948 82.4867 11.9567L82.5864 13.2021C83.4843 24.4314 84.4137 36.0422 83.7299 47.4991C83.7299 47.5112 83.7299 47.5227 83.7299 47.5348V49.8912C83.7299 51.659 83.7299 53.4273 83.7299 55.1963C83.7299 56.2307 83.7157 57.2652 83.702 58.2997C83.673 60.5755 83.645 62.9284 83.7504 65.2451C83.9305 69.1244 84.9054 70.0905 88.7002 70.0905H88.7902C90.0631 70.0859 91.3434 69.9634 92.5804 69.8451C93.4493 69.7617 94.3467 69.6761 95.2248 69.6336C101.273 69.3393 107.322 69.0514 113.372 68.7686C120.661 68.4238 127.949 68.0749 135.238 67.7221C140.739 67.4514 145.701 67.1939 150.728 66.7813C152.516 66.6341 153.886 65.9077 154.587 64.7347C155.288 63.5617 155.284 62.0169 154.583 60.3669C153.983 58.9657 153.399 57.5474 152.816 56.1302ZM145.313 58.3416L145.106 58.3761C144.517 58.4864 143.922 58.56 143.324 58.5968C140.449 58.7117 137.572 58.806 134.696 58.9037C129.765 59.0703 124.664 59.2433 119.649 59.4928C113.382 59.806 107.015 60.202 100.858 60.5847C97.8777 60.7698 94.8971 60.9525 91.9166 61.1324C91.5747 61.152 91.2215 61.1474 90.732 61.1428L90.3406 61.1382C91.4801 41.7209 91.2078 24.314 89.5024 7.97724C114.158 11.6709 136.446 31.7774 145.313 58.3416Z" fill="black"/>
</g>
<defs>
<clipPath id="clip0">
<rect width="154.412" height="150" fill="white" transform="translate(0.777344)"/>
</clipPath>
</defs>
</svg>

<svg xmlns="http://www.w3.org/2000/svg" width="156" height="150" fill="none" viewBox="0 0 156 150"><g fill="#000" clip-path="url(#a)"><path d="M138.968 75.941q-.912-.108-1.832-.084-7.905.074-15.811.155c-11.399.115-23.187.23-34.78.318-2.577.019-5.109-.05-7.789-.123q-1.597-.046-3.219-.082l-.07-.28a3 3 0 0 1-.107-.521q-.71-15.838-1.414-31.675l-.793-17.807a23 23 0 0 1-.016-.906 9.6 9.6 0 0 0-.225-2.447c-1.193-4.45-2.011-5.548-6.773-5.316a66 66 0 0 0-16.803 2.892c-15.278 4.828-26.52 12.897-34.368 24.664C7.902 55.321 3.387 67.657 1.544 81.393c-2.289 17.054 2.5 32.115 13.849 43.554 16.449 16.581 35.674 24.913 57.372 24.913a97.7 97.7 0 0 0 23.784-3.092c9.39-2.357 16.737-6.298 22.46-12.053 11.02-11.083 18.492-24.759 22.841-41.81 1.277-5.005 1.563-9.16.9-13.073-.372-2.197-1.11-3.537-3.782-3.89M23.283 118.947C14.366 110.229 10.2 98.708 11.234 85.63c1.172-14.803 5.901-27.938 14.055-39.041 4.622-6.295 10.904-11.37 19.202-15.517a81.2 81.2 0 0 1 20.303-6.813q.62-.102 1.248-.083h.207l.008.049q.076.45.093.909.128 24.333.232 48.666c0 .748-.038 1.514-.079 2.255-.028.517-.057 1.034-.072 1.555-.062 2.22.427 3.802 1.496 4.836 1.057 1.024 2.612 1.445 4.769 1.295.418-.03.841-.022 1.287-.012l.412.008q3.922.042 7.845.101c5.667.08 11.533.173 17.293.154 7.179-.01 14.48-.085 21.538-.16q5.608-.057 11.219-.107.209.038.406.12l.164.057c-.192 1.075-.358 2.164-.52 3.219a51 51 0 0 1-1.646 7.934c-3.586 11.128-8.309 20.345-14.44 28.181-5.071 6.48-11.221 10.857-18.281 13.008-28.833 8.786-53.964 2.967-74.69-17.297"/><path d="M152.816 56.13c-2.148-5.215-4.369-10.609-7.367-15.577C132.926 19.8 115.314 6.582 93.104 1.266a31.5 31.5 0 0 0-6.179-.847c-1.552-.063-2.704.29-3.5 1.061-.817.79-1.22 1.985-1.232 3.652-.013 1.99.08 4.157.294 6.825l.1 1.245c.897 11.23 1.827 22.84 1.143 34.297v7.697c0 1.035-.014 2.07-.028 3.104-.029 2.276-.057 4.628.048 6.945.18 3.88 1.155 4.846 4.95 4.846h.09c1.273-.005 2.553-.128 3.79-.246a57 57 0 0 1 2.645-.211q9.072-.442 18.147-.865 10.933-.517 21.866-1.047c5.501-.27 10.463-.528 15.49-.94 1.788-.148 3.158-.874 3.859-2.047s.697-2.718-.004-4.368c-.6-1.401-1.184-2.82-1.767-4.237m-7.503 2.212-.207.034q-.884.165-1.782.22c-2.875.116-5.752.21-8.628.308-4.931.166-10.032.34-15.047.589-6.267.313-12.634.709-18.791 1.092q-4.47.277-8.941.547c-.342.02-.695.015-1.185.01l-.391-.004c1.14-19.417.867-36.824-.839-53.16 24.656 3.693 46.944 23.8 55.811 50.364"/></g><defs><clipPath id="a"><path fill="#fff" d="M.777 0H155.19v150H.777z"/></clipPath></defs></svg>
